assets/img/svg/logo.svg

<?xml version="1.0" encoding="UTF-8"?>
<svg width="220px" height="56px" viewBox="0 0 220 56" version="1.1" xmlns="http://www.w3.org/2000/svg" xmlns:xlink="http://www.w3.org/1999/xlink">
    <!-- Generator: Sketch 42 (36781) - http://www.bohemiancoding.com/sketch -->
    <title>logo</title>
    <desc>Created with Sketch.</desc>
    <defs>
        <path d="M1.02027875,14.8296864 C1.02027875,20.1050871 3.94083624,25.0524042 8.52174216,27.6372125 L0.188571429,54.4250871 L31.2262021,54.4250871 L22.8922648,27.6372125 C27.4739373,25.0524042 30.3960279,20.1050871 30.3960279,14.8296864 C30.3960279,6.72954704 23.805993,0.141811847 15.7081533,0.141811847 C7.61031359,0.141811847 1.02027875,6.72954704 1.02027875,14.8296864 Z" id="path-1"></path>
    </defs>
    <g id="Symbols" stroke="none" stroke-width="1" fill="none" fill-rule="evenodd">
        <g id="header-unauth" transform="translate(-610.000000, -58.000000)">
            <g id="logo" transform="translate(610.000000, 58.000000)">
                <polygon id="Fill-1" fill="#FFFFFF" points="219.478746 26.5156725 219.478746 23.944662 207.713728 23.944662 207.713728 44.154 219.478746 44.154 219.478746 41.5829895 210.666481 41.5829895 210.666481 35.1677282 218.641672 35.1677282 218.641672 32.5974843 210.666481 32.5974843 210.666481 26.5156725"></polygon>
                <path d="M42.0702857,41.6782718 C37.841993,41.6782718 34.4155122,38.5377143 34.4155122,34.049561 C34.4155122,29.5606411 37.841993,26.4216167 42.0702857,26.4216167 C46.2993449,26.4216167 49.7265923,29.5606411 49.7265923,34.049561 C49.7265923,38.5377143 46.2993449,41.6782718 42.0702857,41.6782718 M42.0702857,23.6995958 C36.1026899,23.6995958 31.2657561,28.0290732 31.2657561,34.049561 C31.2657561,40.0692822 36.1026899,44.3995261 42.0702857,44.3995261 C48.0386481,44.3995261 52.8763484,40.0692822 52.8763484,34.049561 C52.8763484,28.0290732 48.0386481,23.6995958 42.0702857,23.6995958" id="Fill-2" fill="#FFFFFF"></path>
                <path d="M60.8754564,32.6450871 L60.8754564,26.5502439 L63.448,26.5502439 C65.1650732,26.5502439 66.5563624,27.689338 66.5563624,29.4608362 C66.5563624,31.5972125 65.1650732,32.6450871 63.448,32.6450871 L60.8754564,32.6450871 Z M72.7807526,44.1540767 L65.7836794,34.5522648 C67.6908571,34.0478746 69.5351777,32.0793728 69.5351777,29.4608362 C69.5351777,26.074216 66.8637491,23.9447387 63.448,23.9447387 L57.9227038,23.9447387 L57.9227038,44.1540767 L60.8754564,44.1540767 L60.8754564,35.1678049 L63.0378955,35.1678049 L69.3473728,44.1540767 L72.7807526,44.1540767 Z" id="Fill-3" fill="#FFFFFF"></path>
                <polygon id="Fill-4" fill="#FFFFFF" points="76.8512892 23.9450453 82.4394425 31.3575889 88.0283624 23.9450453 91.3735889 23.9450453 83.9158188 33.765324 83.9158188 44.1536167 80.9638328 44.1536167 80.9638328 33.765324 73.5057561 23.9450453"></polygon>
                <polygon id="Fill-5" fill="#FFFFFF" points="29.0239024 23.9450453 14.9944948 23.9450453 14.9944948 26.5160557 20.5335889 26.5160557 20.5335889 44.1536167 23.4848084 44.1536167 23.4848084 26.5160557 29.0239024 26.5160557"></polygon>
                <path d="M2.96271777,28.7659582 C2.96271777,27.6061672 3.91094077,26.358223 5.99289199,26.358223 C8.86745645,26.358223 10.5730314,28.3819164 10.5730314,28.3819164 L10.5730314,25.1164111 C9.6861324,24.4824739 8.15686411,23.7013589 5.99289199,23.7013589 C2.25825784,23.7013589 0.137212544,26.2493728 0.137212544,28.7659582 C0.137212544,34.5856098 8.56773519,35.0332753 8.56773519,38.9380836 C8.56773519,40.9571777 6.87519164,41.7229617 5.2041115,41.7229617 C1.86731707,41.7229617 0.016097561,38.8867247 0,38.8706272 L0,42.4902787 C1.07777003,43.2928571 2.95505226,44.3798258 5.2041115,44.3798258 C8.63672474,44.3798258 11.3924739,42.2434495 11.3924739,38.9380836 C11.3924739,33.2725087 2.96271777,32.8815679 2.96271777,28.7659582" id="Fill-6" fill="#FFFFFF"></path>
                <path d="M173.057213,41.6782718 C168.827387,41.6782718 165.400906,38.5377143 165.400906,34.049561 C165.400906,29.5606411 168.827387,26.4216167 173.057213,26.4216167 C177.285505,26.4216167 180.713519,29.5606411 180.713519,34.049561 C180.713519,38.5377143 177.285505,41.6782718 173.057213,41.6782718 M173.057213,23.6995958 C167.089617,23.6995958 162.253449,28.0290732 162.253449,34.049561 C162.253449,40.0692822 167.089617,44.3995261 173.057213,44.3995261 C179.026341,44.3995261 183.862509,40.0692822 183.862509,34.049561 C183.862509,28.0290732 179.026341,23.6995958 173.057213,23.6995958" id="Fill-7" fill="#FFFFFF"></path>
                <path d="M191.863763,32.6450871 L191.863763,26.5502439 L194.437073,26.5502439 C196.15338,26.5502439 197.545436,27.689338 197.545436,29.4608362 C197.545436,31.5972125 196.15338,32.6450871 194.437073,32.6450871 L191.863763,32.6450871 Z M203.767526,44.1540767 L196.772753,34.5522648 C198.677631,34.0478746 200.523484,32.0793728 200.523484,29.4608362 C200.523484,26.074216 197.852056,23.9447387 194.437073,23.9447387 L188.909477,23.9447387 L188.909477,44.1540767 L191.863763,44.1540767 L191.863763,35.1678049 L194.025436,35.1678049 L200.334913,44.1540767 L203.767526,44.1540767 Z" id="Fill-8" fill="#FFFFFF"></path>
                <polygon id="Fill-9" fill="#FFFFFF" points="160.009756 23.9450453 145.982648 23.9450453 145.982648 26.5160557 151.519443 26.5160557 151.519443 44.1536167 154.472962 44.1536167 154.472962 26.5160557 160.009756 26.5160557"></polygon>
                <path d="M133.950105,28.7659582 C133.950105,27.6061672 134.897561,26.358223 136.981812,26.358223 C139.854843,26.358223 141.560418,28.3819164 141.560418,28.3819164 L141.560418,25.1164111 C140.673519,24.4824739 139.143484,23.7013589 136.981812,23.7013589 C133.246411,23.7013589 131.123066,26.2493728 131.123066,28.7659582 C131.123066,34.5856098 139.555122,35.0332753 139.555122,38.9380836 C139.555122,40.9571777 137.863345,41.7229617 136.193031,41.7229617 C132.853937,41.7229617 131.001951,38.8867247 130.987387,38.8706272 L130.987387,42.4902787 C132.06669,43.2928571 133.942439,44.3798258 136.193031,44.3798258 C139.624111,44.3798258 142.380627,42.2434495 142.380627,38.9380836 C142.380627,33.2725087 133.950105,32.8815679 133.950105,28.7659582" id="Fill-10" fill="#FFFFFF"></path>
                <g id="Group-19" transform="translate(95.052265, 0.624739)">
                    <mask id="mask-2" fill="white">
                        <use xlink:href="#path-1"></use>
                    </mask>
                    <g id="Clip-12"></g>
                    <polygon id="Fill-11" fill="#EFC519" mask="url(#mask-2)" points="-18.2829965 37.7032474 -23.9028084 32.0859652 19.6236934 -11.4395401 25.2417422 -5.81995819"></polygon>
                    <polygon id="Fill-13" fill="#F36F2C" mask="url(#mask-2)" points="-12.6657143 43.3225226 -18.2829965 37.7029408 25.2417422 -5.82103136 30.8597909 -0.202216028"></polygon>
                    <polygon id="Fill-14" fill="#E7234F" mask="url(#mask-2)" points="-7.04843206 48.9402648 -12.6664808 43.322216 30.8590244 -0.202522648 36.4786063 5.41552613"></polygon>
                    <polygon id="Fill-15" fill="#A71E5D" mask="url(#mask-2)" points="-1.42961672 54.5587735 -7.04843206 48.9399582 36.4786063 5.41445296 42.095122 11.0332683"></polygon>
                    <polygon id="Fill-16" fill="#652267" mask="url(#mask-2)" points="4.18843206 60.1765157 -1.42885017 54.5584669 42.0958885 11.0329617 47.7154704 16.651777"></polygon>
                    <polygon id="Fill-17" fill="#2AA2DC" mask="url(#mask-2)" points="9.80724739 65.7942578 4.18766551 60.1762091 47.7154704 16.6514704 53.3335192 22.2695192"></polygon>
                    <polygon id="Fill-18" fill="#82C441" mask="url(#mask-2)" points="15.4252962 71.4131498 9.80724739 65.7943345 53.3335192 22.2695958 58.9500348 27.8876446"></polygon>
                </g>
            </g>
        </g>
    </g>
</svg>

<svg width="220" height="56" viewBox="0 0 220 56" xmlns="http://www.w3.org/2000/svg" xmlns:xlink="http://www.w3.org/1999/xlink"><title>logo</title><defs><path d="M1.02 14.83c0 5.275 2.92 10.222 7.502 12.807L.189 54.425h31.037l-8.334-26.788c4.582-2.585 7.504-7.532 7.504-12.807 0-8.1-6.59-14.688-14.688-14.688S1.02 6.73 1.02 14.83z" id="a"/></defs><g fill="none" fill-rule="evenodd"><path fill="#FFF" d="M219.479 26.516v-2.571h-11.765v20.209h11.765v-2.571h-8.813v-6.415h7.976v-2.57h-7.976v-6.082zM42.07 41.678c-4.228 0-7.654-3.14-7.654-7.628 0-4.49 3.426-7.628 7.654-7.628 4.23 0 7.657 3.139 7.657 7.628 0 4.488-3.428 7.628-7.657 7.628m0-17.978c-5.967 0-10.804 4.33-10.804 10.35S36.103 44.4 42.07 44.4c5.969 0 10.806-4.33 10.806-10.35S48.04 23.7 42.07 23.7M60.875 32.645V26.55h2.573c1.717 0 3.108 1.14 3.108 2.91 0 2.137-1.39 3.185-3.108 3.185h-2.573zm11.906 11.51l-6.997-9.603c1.907-.504 3.751-2.473 3.751-5.091 0-3.387-2.671-5.516-6.087-5.516h-5.525v20.21h2.952v-8.987h2.163l6.31 8.986h3.433zM76.851 23.945l5.588 7.413 5.59-7.413h3.345l-7.458 9.82v10.389h-2.952V33.765l-7.458-9.82zM29.024 23.945h-14.03v2.571h5.54v17.638h2.95V26.516h5.54zM2.963 28.766c0-1.16.948-2.408 3.03-2.408 2.874 0 4.58 2.024 4.58 2.024v-3.266c-.887-.634-2.416-1.415-4.58-1.415-3.735 0-5.856 2.548-5.856 5.065 0 5.82 8.43 6.267 8.43 10.172 0 2.02-1.692 2.785-3.363 2.785-3.337 0-5.188-2.836-5.204-2.852v3.62c1.078.802 2.955 1.889 5.204 1.889 3.433 0 6.188-2.137 6.188-5.442 0-5.665-8.43-6.056-8.43-10.172M173.057 41.678c-4.23 0-7.656-3.14-7.656-7.628 0-4.49 3.426-7.628 7.656-7.628 4.229 0 7.657 3.139 7.657 7.628 0 4.488-3.428 7.628-7.657 7.628m0-17.978c-5.967 0-10.804 4.33-10.804 10.35s4.837 10.35 10.804 10.35c5.97 0 10.806-4.33 10.806-10.35s-4.837-10.35-10.806-10.35M191.864 32.645V26.55h2.573c1.716 0 3.108 1.14 3.108 2.91 0 2.137-1.392 3.185-3.108 3.185h-2.573zm11.904 11.51l-6.995-9.603c1.905-.504 3.75-2.473 3.75-5.091 0-3.387-2.67-5.516-6.086-5.516h-5.528v20.21h2.955v-8.987h2.161l6.31 8.986h3.433zM160.01 23.945h-14.027v2.571h5.536v17.638h2.954V26.516h5.537zM133.95 28.766c0-1.16.948-2.408 3.032-2.408 2.873 0 4.578 2.024 4.578 2.024v-3.266c-.886-.634-2.417-1.415-4.578-1.415-3.736 0-5.859 2.548-5.859 5.065 0 5.82 8.432 6.267 8.432 10.172 0 2.02-1.692 2.785-3.362 2.785-3.34 0-5.191-2.836-5.206-2.852v3.62c1.08.802 2.955 1.889 5.206 1.889 3.431 0 6.188-2.137 6.188-5.442 0-5.665-8.43-6.056-8.43-10.172"/><g transform="translate(95.052 .625)"><mask id="b" fill="#fff"><use xlink:href="#a"/></mask><path fill="#EFC519" mask="url(#b)" d="M-18.283 37.703l-5.62-5.617L19.624-11.44l5.618 5.62z"/><path fill="#F36F2C" mask="url(#b)" d="M-12.666 43.323l-5.617-5.62L25.242-5.821 30.86-.202z"/><path fill="#E7234F" mask="url(#b)" d="M-7.048 48.94l-5.618-5.618L30.859-.203l5.62 5.619z"/><path fill="#A71E5D" mask="url(#b)" d="M-1.43 54.559l-5.618-5.619L36.479 5.414l5.616 5.62z"/><path fill="#652267" mask="url(#b)" d="M4.188 60.177l-5.617-5.619 43.525-43.525 5.62 5.619z"/><path fill="#2AA2DC" mask="url(#b)" d="M9.807 65.794l-5.62-5.618 43.528-43.525 5.619 5.619z"/><path fill="#82C441" mask="url(#b)" d="M15.425 71.413l-5.618-5.619L53.334 22.27l5.616 5.618z"/></g></g></svg>
